X:124
T: WIR GINGN EINMAL NACH SCHWABEN
N: K2181
O: Europa, Mitteleuropa, Deutschland, Meerane
R: Kinder - Lied, Reigen, Tanz - Spiel, Brautwerbung
M: 2/4
L: 1/8
K: F
F | cccd | c2A
A | cccd | ccA
A | cccd | c2Az |
ccA2 | ccA2 |
cccd | ccA

@@@ Tune index: 7461
